svg/fluentui-system-icons/ic_fluent_person_starburst_24_filled.svg

<svg width="24" height="24" viewBox="0 0 24 24" fill="none" xmlns="http://www.w3.org/2000/svg">
<path d="M13.4895 3.04593C12.9815 1.92219 11.3857 1.92219 10.8777 3.04593C10.505 3.87039 9.47096 4.14745 8.73596 3.6198C7.73415 2.90061 6.3521 3.69854 6.47404 4.92573C6.56349 5.82608 5.80655 6.58303 4.9062 6.49357C3.679 6.37163 2.88108 7.75368 3.60027 8.75549C4.12792 9.49049 3.85086 10.5245 3.0264 10.8972C1.90266 11.4052 1.90266 13.001 3.0264 13.509C3.85086 13.8817 4.12792 14.9158 3.60027 15.6508C2.88108 16.6526 3.679 18.0346 4.9062 17.9127C5.80655 17.8232 6.56349 18.5802 6.47404 19.4805C6.3521 20.7077 7.73415 21.5056 8.73596 20.7864C9.47096 20.2588 10.505 20.5359 10.8777 21.3603C11.3857 22.4841 12.9815 22.4841 13.4895 21.3603C13.8622 20.5359 14.8962 20.2588 15.6312 20.7864C16.633 21.5056 18.0151 20.7077 17.8932 19.4805C17.8037 18.5802 18.5606 17.8232 19.461 17.9127C20.6882 18.0346 21.4861 16.6526 20.7669 15.6508C20.2393 14.9158 20.5163 13.8817 21.3408 13.509C22.4645 13.001 22.4645 11.4052 21.3408 10.8972C20.5163 10.5245 20.2393 9.49049 20.7669 8.75549C21.4861 7.75368 20.6882 6.37163 19.461 6.49357C18.5606 6.58303 17.8037 5.82608 17.8932 4.92573C18.0151 3.69854 16.633 2.90061 15.6312 3.6198C14.8962 4.14745 13.8622 3.87039 13.4895 3.04593ZM9.76956 8.58207C9.76956 7.24885 10.8503 6.16807 12.1836 6.16807C13.5168 6.16807 14.5976 7.24885 14.5976 8.58207C14.5976 9.91528 13.5168 10.9961 12.1836 10.9961C10.8503 10.9961 9.76956 9.91528 9.76956 8.58207ZM9.16603 12.2031L15.2011 12.2031C16.201 12.2031 17.0115 13.0137 17.0115 14.0136C17.0115 15.3607 16.4576 16.44 15.5485 17.1696C14.6538 17.8878 13.4546 18.2381 12.1836 18.2381C10.9125 18.2381 9.71333 17.8878 8.81862 17.1696C7.90954 16.44 7.35556 15.3607 7.35556 14.0136C7.35556 13.0137 8.16613 12.2031 9.16603 12.2031Z" fill="#212121"/>
</svg>

<svg xmlns="http://www.w3.org/2000/svg" width="24" height="24"><path d="M13.49 3.046c-.508-1.124-2.104-1.124-2.612 0a1.433 1.433 0 0 1-2.142.574c-1.002-.72-2.384.079-2.262 1.306.09.9-.667 1.657-1.568 1.568C3.68 6.372 2.881 7.754 3.6 8.755c.528.735.25 1.77-.574 2.142-1.123.508-1.123 2.104 0 2.612a1.433 1.433 0 0 1 .574 2.142c-.719 1.002.079 2.384 1.306 2.262.9-.09 1.657.667 1.568 1.567-.122 1.228 1.26 2.026 2.262 1.306a1.433 1.433 0 0 1 2.142.574c.508 1.124 2.104 1.124 2.611 0a1.433 1.433 0 0 1 2.142-.574c1.002.72 2.384-.078 2.262-1.306-.09-.9.668-1.657 1.568-1.567 1.227.122 2.025-1.26 1.306-2.262a1.433 1.433 0 0 1 .574-2.142c1.123-.508 1.123-2.104 0-2.612a1.433 1.433 0 0 1-.574-2.142c.72-1.001-.079-2.383-1.306-2.261a1.434 1.434 0 0 1-1.568-1.568c.122-1.227-1.26-2.025-2.262-1.306a1.433 1.433 0 0 1-2.142-.574ZM9.77 8.582a2.414 2.414 0 1 1 4.828 0 2.414 2.414 0 0 1-4.828 0Zm-.604 3.621h6.035c1 0 1.81.81 1.81 1.81 0 1.348-.553 2.427-1.462 3.157-.895.718-2.094 1.068-3.365 1.068-1.271 0-2.47-.35-3.365-1.068-.91-.73-1.463-1.81-1.463-3.156 0-1 .81-1.81 1.81-1.81Z"/></svg>
